X: 5
T: Ballyoran, The
C: Sean Ryan
Z: Sean Perry
S: https://thesession.org/tunes/436#setting52652
R: hornpipe
M: 4/4
L: 1/8
K: Gmaj
|:Bc|dB (3)cBA BGAF | DGGF GABc|dg ~g2 bgdB|(3cBA BG A2Bc|
dB (3)cBA BGAF | DGGF GABc|dg ~g2 fgaf|dggf g2 :|
|:Bc|dg ~g2 bg ~g2|dggd ecAG | FGAB cBce|agfe d2 Bc|
dg ~g2 bg ~g2|dggd ecAG | FGAB cAFG |AGGF G2 :|
|:Bc|dDGB dgfg| ec ~c2 Aceg |fdde fg (3agf|dg ~g2 bgdc|
dDGB dgfg| ec ~c2 Aceg |fdde fg (3agf|dggf f2 :|

%-------------------- TUNE SEPARATOR --------------------%

